svg/white/crw.svg

<svg height="32" viewBox="0 0 32 32" width="32" xmlns="http://www.w3.org/2000/svg"><path d="m16 32c-8.836556 0-16-7.163444-16-16s7.163444-16 16-16 16 7.163444 16 16-7.163444 16-16 16zm8.8330498-16.6535728c-.0638648.1209744-.0911186.1799635-.1247316.2351136-.3940901.6470073-.7921773 1.2915802-1.1833603 1.9404601-.7306746 1.2118044-1.4579879 2.4257624-2.1851194 3.639814-.0814889.1361431-.1690645.2068363-.3328599.1226599-1.14575-.5882055-2.3914307-.7725698-3.6404727-.9125519-1.3382528-.1500008-2.6747795-.0941016-4.0016765.1629223-.4726719.0914799-.4748522.0793075-.266088.5271564.1909583.4095528.2616365.4436354.66254.3746275 2.5572248-.4397964 5.0355951-.2181659 7.401589.9430764.358115.17575.4356067.1496263.6417363-.1966303 1.6770176-2.8172439 3.3533993-5.6348624 5.0294176-8.4526681.0480576-.0808057.0894833-.1657312.1659757-.3082414-.1114681.0433523-.1525305.0558056-.190595.0747195-1.1484754.5693852-2.3191173 1.075755-3.5872369 1.288303-.8967411.1503753-1.7903026.2001883-2.6668759-.1339895-.8939249-.3408259-1.570001-.9806234-2.2035612-1.6818445-.1365415-.1510308-.2740824-.3011252-.4386954-.4819314-.1240957.2012183-.2240263.3642342-.3249563.5267819-.1275478.2054318-.0868487.3853953.0794903.5436359.344579.3278108.6782564.6692921 1.0385518.9778144.8910178.7628319 1.9007713 1.2355873 3.0770457 1.2798759.879662.0332399 1.7305259-.1414802 2.5758481-.3629233.1351789-.0353935.2725381-.06133.4740346-.1061804zm-17.6542896.1209276c.01498959-.0188203.02988834-.037547.04478709-.0563673.39118298.0779967.78163919.1602069 1.17373063.2330537.85640547.158896 1.71453698.1998138 2.56939808-.0050562 1.0874269-.260582 2.0133296-.8333379 2.8394834-1.59102.9242674-.8477574 1.6231459-1.8817519 2.3172095-2.9263269.3110568-.4679801.3972697-.8696677.0289799-1.32107465-.0672261-.08239746-.1204618-.17696727-.2034043-.30056345-.0715866.12780969-.112649.2005629-.1531664.27359701-.628927 1.13249689-1.3223547 2.21845789-2.1777609 3.18597249-.5338112.603655-1.12749 1.1328714-1.8468088 1.491394-1.1572875.5767822-2.35654585.5417633-3.57061212.2404507-.9458888-.2347391-1.83872353-.6188236-2.7213835-1.0314663-.14535364-.0680715-.2937052-.1293078-.44069407-.1937276-.01290013.0174158-.02570942.0349252-.03851871.0523411.04451455.0867046.08466849.1762182.13417958.2597392.34675927.5854901.69569885 1.1695757 1.04354828 1.7543168 1.28865085 2.1661167 2.57557563 4.3333571 3.86649764 6.4979757.3646559.6113329.2903439.5408269.8881107.2658254.2766262-.1273415.2772621-.1351131.1169189-.4013131-1.12076744-1.8605907-2.24298838-3.7201514-3.36430085-5.5803676-.16988207-.2817432-.33758383-.5648908-.50619405-.847383z" fill="#fff" fill-rule="evenodd"/></svg>

<svg xmlns="http://www.w3.org/2000/svg" width="32" height="32" viewBox="0 0 32 32">
  <path fill="#FFF" fill-rule="evenodd" d="M16,32 C7.163444,32 0,24.836556 0,16 C0,7.163444 7.163444,0 16,0 C24.836556,0 32,7.163444 32,16 C32,24.836556 24.836556,32 16,32 Z M24.8330498,15.3464272 C24.769185,15.4674016 24.7419312,15.5263907 24.7083182,15.5815408 C24.3142281,16.2285481 23.9161409,16.873121 23.5249579,17.5220009 C22.7942833,18.7338053 22.06697,19.9477633 21.3398385,21.1618149 C21.2583496,21.297958 21.170774,21.3686512 21.0069786,21.2844748 C19.8612286,20.6962693 18.6155479,20.511905 17.3665059,20.3719229 C16.0282531,20.2219221 14.6917264,20.2778213 13.3648294,20.5348452 C12.8921575,20.6263251 12.8899772,20.6141527 13.0987414,21.0620016 C13.2896997,21.4715544 13.3603779,21.505637 13.7612814,21.4366291 C16.3185062,20.9968327 18.7968765,21.2184632 21.1628704,22.3797055 C21.5209854,22.5554555 21.5984771,22.5293318 21.8046067,22.1830752 C23.4816243,19.3658313 25.158006,16.5482128 26.8340243,13.7304071 C26.8820819,13.6496014 26.9235076,13.5646759 27,13.4221657 C26.8885319,13.465518 26.8474695,13.4779713 26.809405,13.4968852 C25.6609296,14.0662704 24.4902877,14.5726402 23.2221681,14.7851882 C22.325427,14.9355635 21.4318655,14.9853765 20.5552922,14.6511987 C19.6613673,14.3103728 18.9852912,13.6705753 18.351731,12.9693542 C18.2151895,12.8183234 18.0776486,12.668229 17.9130356,12.4874228 C17.7889399,12.6886411 17.6890093,12.851657 17.5880793,13.0142047 C17.4605315,13.2196365 17.5012306,13.3996 17.6675696,13.5578406 C18.0121486,13.8856514 18.345826,14.2271327 18.7061214,14.535655 C19.5971392,15.2984869 20.6068927,15.7712423 21.7831671,15.8155309 C22.6628291,15.8487708 23.513693,15.6740507 24.3590152,15.4526076 C24.4941941,15.4172141 24.6315533,15.3912776 24.8330498,15.3464272 Z M7.1787602,15.4673548 C7.19374979,15.4485345 7.20864854,15.4298078 7.22354729,15.4109875 C7.61473027,15.4889842 8.00518648,15.5711944 8.39727792,15.6440412 C9.25368339,15.8029372 10.1118149,15.843855 10.966676,15.638985 C12.0541029,15.378403 12.9800056,14.8056471 13.8061594,14.047965 C14.7304268,13.2002076 15.4293053,12.1662131 16.1233689,11.1216381 C16.4344257,10.653658 16.5206386,10.2519704 16.1523488,9.80056345 C16.0851227,9.71816599 16.031887,9.62359618 15.9489445,9.5 C15.8773579,9.62780969 15.8362955,9.7005629 15.7957781,9.77359701 C15.1668511,10.9060939 14.4734234,11.9920549 13.6180172,12.9595695 C13.084206,13.5632245 12.4905272,14.0924409 11.7712084,14.4509635 C10.6139209,15.0277457 9.41466255,14.9927268 8.20059628,14.6914142 C7.25470748,14.4566751 6.36187275,14.0725906 5.47921278,13.6599479 C5.33385914,13.5918764 5.18550758,13.5306401 5.03851871,13.4662203 C5.02561858,13.4836361 5.01280929,13.5011455 5,13.5185614 C5.04451455,13.605266 5.08466849,13.6947796 5.13417958,13.7783006 C5.48093885,14.3637907 5.82987843,14.9478763 6.17772786,15.5326174 C7.46637871,17.6987341 8.75330349,19.8659745 10.0442255,22.0305931 C10.4088814,22.641926 10.3345694,22.57142 10.9323362,22.2964185 C11.2089624,22.169077 11.2095983,22.1613054 11.0492551,21.8951054 C9.92848766,20.0345147 8.80626672,18.174954 7.68495425,16.3147378 C7.51507218,16.0329946 7.34737042,15.749847 7.1787602,15.4673548 Z"/>
</svg>
